X:1
T:Title
%%score [ ( 1 2 ) ( 3 4 ) ] { ( 5 6 ) | ( 7 8 ) }
L:1/8
Q:1/4=120
M:4/4
K:A
V:1 treble nm="Midi_74" snm=" "
V:2 treble 
V:3 bass nm="Midi_74"
V:4 bass 
V:5 treble nm="Org."
V:6 treble 
V:7 bass 
V:8 bass 
V:1
"^4th verse" (c6 e2) | f4 d4 | B8"^Chant for the 15th Evening of the Month" || e8 | %4
 (f2 e2) (d2 c2) | c4 B4 | A8 ||"^Voices begin here to Chant the first Verse." (B6 d2) | c4 A4 | %9
 F8 || G8 | A4 (G2 F2) |"^John Camidge\n(1790-1859)" G4 F4 | E8 ||"^2nd verse" (^E6 F2) | G4 c4 | %16
 A8 || (B6 d2) | c4 e4 | f4 ^d4 | (e6 !courtesy!=d2) ||"^3rd verse" (c6 d2) | e4 A4 | B8 || %24
 (c6 d2) | e4 A4 | c4 B4 | A8 |] %28
V:2
 E8 | D4 F4 | G8 || (E6 G2) | A4 F4 | E4 E4 | E8 || E8 | E4 F4 | ^D8 || E8 | E4 E4 | E4 ^D4 | E8 || %14
 C8 | C4 ^E4 | F8 || =E8 | E4 E4 | C4 (B,2 A,2) | (G,6 B,2) || (C6 E2) | B,4 A,4 | G,8 || E8 | %25
 E4 D4 | (C2 A2) G4 | A8 |] %28
V:3
 A,8 | A,4 B,4 | B,8 || (B,6 D2) | C4 (B,2 A,2) | A,4 G,4 | (A,6 B,C) || (B,6 G,2) | A,4 C4 | %9
 B,8 || B,8 | A,4 (B,2 C2) | B,4 A,4 | G,8 || G,8 | G,4 (G,2 C2) | C8 || B,8 | C4 B,4 | A,4 F,4 | %20
 G,8 || A,8 | B,4 (C2 ^D2) | E8 || C8 | B,4 A,4 | (A,2 E2) D4 | C8 |] %28
V:4
 (A,,6 C,2) | D,4 B,,4 | E,8 || (G,6 B,2) | A,4 D,4 | E,4 D,4 | (C,6 B,,A,,) || (G,,6 B,,2) | %8
 A,,4 F,,4 | B,,8 || (E,6 ^D,2) | C,4 (B,,2 A,,2) | B,,4 B,,4 | (E,6 D,2) || (C,6 ^D,2) | %15
 ^E,4 C,4 | F,8 || G,8 | A,4 G,4 | F,4 B,,4 | E,8 || A,8 | G,4 F,4 | E,8 || A,8 | G,4 F,4 | %26
 E,4 E,4 | A,,8 |] %28
V:5
 c6 e2 | [FAf]4 [FBd]4 | [GB]8 || [Ee]8 | f2 e2 [Bd]2 [Ac]2 | [EAc]4 [EGB]4 | A8 || %7
 [B,EB]6 [EGd]2 | [EAc]4 [A,CFA]4 | [B,F]8 || [B,G]8 | [A,EA]4 [B,EG]2 [CEF]2 | %12
 [B,EG]4 [A,B,^DF]4 | E8 || [C^E]6 [^B,F]2 | [CG]4 [CGc]4 | A8 || B6 d2 | [Ec]4 [EBe]4 | %19
 [Acf]4 [FAB^d]4 | [EGBe]8 || c6 d2 | [Be]4 A4 | [GB]8 || [Ac]6 d2 | [Be]4 [Ada]4 | %26
 [EAc]4 [DEGB]4 | A8 |] %28
V:6
 [EA]8 | x8 | E8 || B6 d2 | [Ac]4 F4 | x8 | E6 DC || x8 | x8 | ^D8 || E8 | x8 | x8 | [G,B,E]8 || %14
 x8 | x8 | [CF]8 || E8 | x8 | x8 | x8 || [EA]8 | E4 [CE]2 [^DF]2 | E8 || E8 | x8 | x8 | [CEA]8 |] %28
V:7
 x8 | x8 | x8 || x8 | x8 | x8 | E,8 || x8 | x8 | x8 || x8 |"^8 vi" x8 | x8 | x8 || G,8 | G,4 x4 | %16
 x8 || x8 | x8 | x8 | x8 || x8 | x8 | x8 || x8 | x8 | x8 | x8 |] %28
V:8
 [A,,A,]6 [C,C]2 | [D,D]4 [B,,B,]4 | [E,B,]8 || [G,,G,]6 [B,,G,]2 | [A,,A,]4 D,4 | E,4 [D,E,]4 | %6
 C,6 B,,A,, || [G,,E,]6 [B,,G,]2 | [A,,A,]4 [F,,F,]4 | [B,,F,]8 || [E,,E,]6 [^D,,^D,]2 | %11
 C,4 B,,2 A,,2 | B,,4 B,,4 | [E,,E,]8 || C,6 ^D,2 | ^E,4 [C,E,]4 | [F,,F,]8 || [G,,G,]8 | %18
 [A,,A,]4 [G,,G,]4 | [F,,F,]4 [B,,B,]4 | [E,B,]8 || [A,,A,]8 | [G,,G,]4 [F,,F,]4 | [E,,E,]8 || %24
 [A,,A,]8 | [G,,G,]4 [F,,F,]4 | [E,,E,]4 [E,,E,]4 | [A,,A,]8 |] %28

